minions/core/static/assets/demch_logo.svg

<svg width="152" height="28" viewBox="0 0 152 28" fill="none" xmlns="http://www.w3.org/2000/svg">
                    <path d="M2.84417 24.8464C0.932515 22.6962 0 20.116 0 17.1058C0 14.0956 0.932515 11.5154 2.84417 9.36519C4.75583 7.21502 7.27362 6.11604 10.3509 6.11604C13.9411 6.11604 16.7386 7.50171 18.7436 10.3686V0H20.6552V27.4744H18.7436V23.7952C16.7386 26.5666 13.9877 28 10.3509 28C7.27362 28 4.75583 26.9488 2.84417 24.8464ZM18.7436 21.0239V13.1877C17.3914 10.1775 14.1276 7.97952 10.6773 7.97952C8.15951 7.97952 6.06135 8.83959 4.42945 10.6075C2.75092 12.3754 1.95828 14.5256 1.95828 17.1058C1.95828 19.686 2.75092 21.884 4.42945 23.6041C6.10797 25.3242 8.15951 26.1843 10.6773 26.1843C14.2209 26.1843 17.3914 24.0341 18.7436 21.0239Z"
                        fill="#010203" />
                    <path d="M27.4626 24.942C25.3644 22.8874 24.2921 20.2594 24.2921 17.1058C24.2921 13.9522 25.2246 11.3242 27.0896 9.3174C28.9546 7.21501 31.3792 6.16382 34.3632 6.16382C37.7669 6.16382 40.4246 7.69283 41.7301 9.93856C43.0822 12.1843 43.735 14.43 43.735 16.7235V17.3925H26.2037C26.2503 20.0205 27.1362 22.1706 28.908 23.7474C30.6332 25.372 32.9178 26.1843 35.6221 26.1843C38.0467 26.1843 40.2847 25.5154 42.1964 24.2253V26.1365C40.5644 27.3788 38.3264 28 35.389 28C32.1718 28 29.5608 26.9966 27.4626 24.942ZM41.8233 15.6724C41.8233 12.6621 39.7718 7.97952 34.3166 7.97952C31.9387 7.97952 30.027 8.74402 28.5816 10.3208C27.1829 11.8498 26.3902 13.6177 26.2503 15.6246H41.8233V15.6724Z"
                        fill="#010203" />
                    <path d="M47.3718 27.4744V6.68942H49.2834V10.1297C50.7754 7.88396 53.573 6.16382 56.9767 6.16382C60.427 6.16382 62.6184 7.64505 63.5975 10.6075C65.1828 8.0273 68.1669 6.16382 71.757 6.16382C76.373 6.16382 78.9374 9.12628 78.9374 14.4778V27.4744H77.0257V14.9078C77.0257 11.9932 76.2331 9.98634 74.881 9.12628C73.5754 8.26621 72.5963 7.97952 71.2442 7.97952C69.7521 7.97952 68.3534 8.45733 67.0012 9.41297C65.6957 10.3686 64.6699 11.5631 64.0172 12.901C64.0638 13.9522 64.1104 14.6689 64.1104 15.099V27.4744H62.1988V14.8601C62.1988 10.273 60.2871 8.0273 56.5104 8.0273C55.1116 8.0273 53.7129 8.45733 52.3607 9.36518C51.0552 10.273 50.0294 11.372 49.2834 12.7099V27.4744H47.3718Z"
                        fill="#010203" />
                    <path d="M85.2319 24.8464C83.227 22.6962 82.2012 20.116 82.2012 17.058C82.2012 14.0478 83.227 11.4676 85.2319 9.31739C87.2368 7.16722 89.8479 6.11603 92.9252 6.11603C95.1632 6.11603 97.2147 6.64163 99.0331 7.7406V9.65186C97.1215 8.50511 95.1632 7.93173 93.1117 7.93173C90.5472 7.93173 88.4491 8.7918 86.6773 10.5597C84.9521 12.3276 84.1129 14.4778 84.1129 17.058C84.1129 19.6382 84.9521 21.8362 86.6773 23.5563C88.4025 25.2764 90.5472 26.1365 93.1117 26.1365C95.4896 26.1365 97.5877 25.4676 99.4061 24.1775V26.1365C97.6344 27.3788 95.443 27.9522 92.8319 27.9522C89.7546 28 87.2368 26.9488 85.2319 24.8464Z"
                        fill="#010203" />
                    <path d="M105.374 27.4744H103.463V0H105.374V10.3208C107.193 8.07509 110.41 6.16382 114 6.16382C119.129 6.16382 121.88 9.31741 121.88 14.8601V27.5222H119.968V15.2423C119.968 12.2799 119.082 10.1775 117.683 9.26962C116.331 8.36177 115.026 8.0273 113.487 8.0273C111.902 8.0273 110.363 8.50512 108.825 9.50853C107.286 10.4642 106.12 11.6109 105.374 12.8532V27.4744V27.4744Z"
                        fill="#010203" />
                    <path d="M138.199 17.9659L138.292 17.9181V16.198L137.919 16.4369C136.893 17.1536 135.728 17.5358 134.375 17.5358C132.977 17.5358 131.764 17.058 130.785 16.1024C129.853 15.1468 129.387 13.9044 129.387 12.471C129.387 11.0376 129.853 9.84301 130.785 8.8396C131.764 7.88397 132.93 7.40616 134.375 7.40616C135.541 7.40616 136.614 7.74063 137.686 8.36179L138.012 8.55291V6.92834L137.919 6.88056C136.847 6.2594 135.588 5.92493 134.236 5.92493C132.371 5.92493 130.785 6.59387 129.62 7.83619C128.407 9.12629 127.801 10.7031 127.801 12.471C127.801 14.2867 128.407 15.8635 129.62 17.1536C130.832 18.4437 132.371 19.0649 134.236 19.0649C135.821 19.0649 137.126 18.7304 138.199 17.9659Z"
                        fill="#010203" />
                    <path d="M150.182 7.88397C148.969 6.59387 147.384 5.92493 145.519 5.92493C143.607 5.92493 142.022 6.59387 140.856 7.88397C139.644 9.17407 139.085 10.7031 139.085 12.5188C139.085 14.3345 139.691 15.9113 140.856 17.1536C142.069 18.4437 143.607 19.0649 145.519 19.0649C147.431 19.0649 148.969 18.4437 150.182 17.1536C151.394 15.8635 152 14.2867 152 12.5188C152 10.7031 151.394 9.17407 150.182 7.88397ZM145.566 7.45394C146.964 7.45394 148.13 7.93175 149.063 8.88738C149.995 9.84301 150.461 11.0853 150.461 12.5188C150.461 13.9522 149.995 15.1468 149.063 16.1502C148.13 17.1058 146.964 17.5836 145.566 17.5836C144.167 17.5836 143.048 17.1058 142.069 16.1502C141.136 15.1945 140.67 13.9522 140.67 12.5188C140.67 11.0853 141.136 9.8908 142.069 8.88738C143.001 7.93175 144.167 7.45394 145.566 7.45394Z"
                        fill="#010203" />
                    <path d="M139.924 26.8533C137.126 26.8533 134.329 25.8976 131.718 23.9386L132.65 22.6007C137.313 26.0888 142.488 26.0888 147.151 22.6007L148.083 23.9386C145.519 25.8499 142.721 26.8533 139.924 26.8533Z"
                        fill="#010203" />
                </svg>

<svg width="152" height="28" viewBox="0 0 152 28" fill="none" xmlns="http://www.w3.org/2000/svg"><path d="M2.844 24.846C.933 22.696 0 20.116 0 17.106s.933-5.59 2.844-7.74c1.912-2.151 4.43-3.25 7.507-3.25 3.59 0 6.388 1.386 8.393 4.253V0h1.911v27.474h-1.911v-3.679C16.739 26.567 13.988 28 10.35 28c-3.077 0-5.595-1.051-7.507-3.154zm15.9-3.822v-7.836c-1.353-3.01-4.616-5.208-8.067-5.208-2.517 0-4.616.86-6.248 2.627-1.678 1.768-2.47 3.919-2.47 6.499 0 2.58.792 4.778 2.47 6.498 1.679 1.72 3.73 2.58 6.248 2.58 3.544 0 6.714-2.15 8.067-5.16zm8.719 3.918c-2.099-2.055-3.17-4.683-3.17-7.836 0-3.154.932-5.782 2.797-7.789 1.865-2.102 4.29-3.153 7.273-3.153 3.404 0 6.062 1.529 7.367 3.775 1.352 2.245 2.005 4.491 2.005 6.785v.668H26.204c.046 2.628.932 4.779 2.704 6.355 1.725 1.625 4.01 2.437 6.714 2.437 2.425 0 4.663-.669 6.574-1.959v1.912C40.564 27.379 38.326 28 35.39 28c-3.217 0-5.828-1.003-7.926-3.058zm14.36-9.27c0-3.01-2.051-7.692-7.506-7.692-2.378 0-4.29.764-5.735 2.34-1.4 1.53-2.192 3.298-2.332 5.305h15.573v.047zm5.549 11.802V6.69h1.911v3.44c1.492-2.245 4.29-3.965 7.694-3.965 3.45 0 5.641 1.481 6.62 4.444 1.586-2.58 4.57-4.444 8.16-4.444 4.616 0 7.18 2.962 7.18 8.314v12.996h-1.911V14.908c0-2.915-.793-4.922-2.145-5.782-1.306-.86-2.285-1.146-3.637-1.146-1.492 0-2.89.477-4.243 1.433-1.305.956-2.331 2.15-2.984 3.488.047 1.051.093 1.768.093 2.198v12.375H62.2V14.86c0-4.587-1.912-6.833-5.689-6.833-1.398 0-2.797.43-4.15 1.338-1.305.908-2.33 2.007-3.077 3.345v14.764h-1.911zm37.86-2.628c-2.005-2.15-3.03-4.73-3.03-7.788 0-3.01 1.025-5.59 3.03-7.74 2.005-2.15 4.616-3.202 7.693-3.202 2.238 0 4.29.526 6.108 1.625v1.91c-1.912-1.146-3.87-1.72-5.921-1.72-2.565 0-4.663.86-6.435 2.629-1.725 1.768-2.564 3.918-2.564 6.498s.84 4.778 2.564 6.498c1.725 1.72 3.87 2.58 6.435 2.58 2.378 0 4.476-.668 6.294-1.959v1.96c-1.772 1.242-3.963 1.815-6.574 1.815-3.077.048-5.595-1.003-7.6-3.106zm20.142 2.628h-1.911V0h1.911v10.32c1.819-2.245 5.036-4.156 8.626-4.156 5.129 0 7.88 3.153 7.88 8.696v12.662h-1.912v-12.28c0-2.962-.886-5.065-2.285-5.972-1.352-.908-2.657-1.243-4.196-1.243-1.585 0-3.124.478-4.662 1.482-1.539.955-2.705 2.102-3.451 3.344v14.621zm32.825-9.508l.093-.048v-1.72l-.373.239c-1.026.717-2.191 1.099-3.544 1.099-1.398 0-2.611-.478-3.59-1.434-.932-.955-1.398-2.198-1.398-3.631 0-1.433.466-2.628 1.398-3.631.979-.956 2.145-1.434 3.59-1.434 1.166 0 2.239.335 3.311.956l.326.19V6.929l-.093-.047c-1.072-.622-2.331-.956-3.683-.956-1.865 0-3.451.669-4.616 1.911-1.213 1.29-1.819 2.867-1.819 4.635 0 1.816.606 3.393 1.819 4.683 1.212 1.29 2.751 1.91 4.616 1.91 1.585 0 2.89-.334 3.963-1.098zm11.983-10.082c-1.213-1.29-2.798-1.96-4.663-1.96-1.912 0-3.497.67-4.663 1.96-1.212 1.29-1.771 2.82-1.771 4.635 0 1.816.606 3.392 1.771 4.635 1.213 1.29 2.751 1.91 4.663 1.91 1.912 0 3.45-.62 4.663-1.91 1.212-1.29 1.818-2.867 1.818-4.635 0-1.816-.606-3.345-1.818-4.635zm-4.616-.43c1.398 0 2.564.478 3.497 1.433.932.956 1.398 2.198 1.398 3.632 0 1.433-.466 2.628-1.398 3.631-.933.956-2.099 1.434-3.497 1.434-1.399 0-2.518-.478-3.497-1.434-.933-.955-1.399-2.198-1.399-3.631 0-1.434.466-2.628 1.399-3.632.932-.955 2.098-1.433 3.497-1.433zm-5.642 19.399c-2.798 0-5.595-.955-8.206-2.914l.932-1.338c4.663 3.488 9.838 3.488 14.501 0l.932 1.338c-2.564 1.91-5.362 2.914-8.159 2.914z" fill="#010203"/></svg>
